src/assets/scribbles/loop.svg

<svg width="301" height="243" viewBox="0 0 301 243" fill="none" xmlns="http://www.w3.org/2000/svg">
<path d="M1.5752 27.5739C2.77077 38.334 27.0816 46.945 34.2831 49.9431C84.7228 70.9416 140.949 79.545 195.379 80.5832C232.989 81.3005 280.997 70.4069 297.074 30.7695C306.262 8.11476 279.617 0.625757 262.674 1.63316C227.406 3.7302 196.778 30.2463 176.205 57.0861C155.508 84.0889 146.932 118.207 142.369 151.45C139.176 174.714 135.363 201.405 142.369 224.385C143.974 229.647 147.12 234.126 148.761 239.047" stroke="#EBD4BD" stroke-width="3" stroke-linecap="round"/>
<path d="M116.616 213.82C120.766 214.339 129.567 224.354 132.782 227.355C136.939 231.234 145.327 239.468 151.298 240.795C154.726 241.557 160.603 218.932 160.603 215.512" stroke="#EBD4BD" stroke-width="3" stroke-linecap="round"/>
</svg>

<svg width="301" height="243" fill="none" xmlns="http://www.w3.org/2000/svg"><path d="M1.575 27.574c1.196 10.76 25.507 19.371 32.708 22.37 50.44 20.998 106.666 29.601 161.096 30.64 37.61.716 85.618-10.177 101.695-49.815 9.188-22.654-17.457-30.143-34.4-29.136-35.268 2.097-65.896 28.613-86.469 55.453-20.697 27.003-29.273 61.121-33.836 94.364-3.193 23.264-7.006 49.955 0 72.935 1.605 5.262 4.751 9.741 6.392 14.662" stroke="#EBD4BD" stroke-width="3" stroke-linecap="round"/><path d="M116.616 213.82c4.15.519 12.951 10.534 16.166 13.535 4.157 3.879 12.545 12.113 18.516 13.44 3.428.762 9.305-21.863 9.305-25.283" stroke="#EBD4BD" stroke-width="3" stroke-linecap="round"/></svg>
